!!!OTL: Ertongtuan fangshao
!!!ARE: Asia, China,ÿHebei Weixian
!! IV, 50
!!!SCT: C1927
!!!YEM: Copyright 1995, estate of Helmut Schaffrath.
**kern
*ICvox
*Ivox
*M2/4
*k[b-]
*F:
{8.a
16cc
8f
8g
=1
8a
16a
16g
4a}
=2
{8d
8f
8g
8cc
=3
16dd
16dd
16dd
16a
4cc}
=4
{8dd
16cc
16a
8dd
16cc
16a
=5
8dd
8a
4dd}
=6
{16g
16a
8cc
16a
16g
8f
=7
16dd
16cc
16a
16g
4f}
=8
{16a
16a
16a
16g
4a
=9
16dd
16dd
16dd
16a
4cc}
=10
{16g
16a
8cc
16a
16g
8f
=11
8cc
16a
16g
4f}
==
!!!AGN: Xiaodiao, Erge
!!!AMT: simple duple
!!!AIN: vox
!!!EED: Helmut Schaffrath
!!!EEV: 1.0
*-
